X:1
T:Feste Lariane
T:Feste Lariane
T:(Aria con variazioni)
T:Luigi Mozzani (1869 - 1943)
T:1^ Variazione
T:2^ Variazione
T:© 2016 Gibbin Fabio
T:© 2016 Gibbin Fabio
T:© 2016 Gibbin Fabio
T:© 2016 Gibbin Fabio
C:Luigi Mozzani (1869 - 1943)
Z:© 2016 Gibbin Fabio
%%score ( 1 2 3 )
L:1/8
Q:1/4=108
M:3/4
K:C
V:1 treble transpose=-12 nm="Chitarra classica" snm="Chit. cl."
V:2 treble transpose=-12 
V:3 treble transpose=-12 
V:1
"^Moderato"!<(! !0!e2 !1!^f2 !4!^g2!<)! |"^½V" a4 !4!c'2 |!>(! !4!b2 !1!a2"^½IV" !1!^g2!>)! | %3
"^½V" a4 a2 | !1!f2 f2 f2 | !0!e4 e2 | !4!d2 !1!c2 !0!B2 |"^II" A4 z2 | %8
!<(! !0!e2 !1!^f2 !4!^g2!<)! |"^½V" a4 !4!c'2 |!>(! !4!b2 a2"^½IV" ^g2!>)! |"^½V" a4 a2 | %12
 !1!f2 f2 f2 | !0!e4 e2 | !4!d2 !1!c2 !0!B2 |"^II" A4 z2 |!<(! !4!g2 g2 g2!<)! | g4 g2 | %18
!>(! !1!f2 !4!a2 !2!g2!>)! | !0!e4 e2 | !4!c'2 !4!b2 !4!a2 | !4!g2 !4!e'2 !4!g2 | %22
 !1!f2 !4!d'2 !1!f2 | !0!e4 e2 |!<(! !0!e2 !1!^f2 !4!^g2!<)! |"^½V" a4 !4!c'2 | %26
!>(! !4!b2 a2"^½IV" ^g2!>)! |"^½V" a4 a2 | !1!f2 f2 f2 | !0!e4 e2 | !4!d2 !1!c2 !0!B2 | %31
"^II""^II" A4 z2 | !1!f2 f2 f2 | !0!e4 e2 |!<(! e2 x2!<)!!>(! x2!>)! |"^V" a2 !1!a2 z2 |: %36
!<(! e2 ^f2 ^g2!<)! | a4 c'2 |!>(! b2 a2 ^g2!>)! | a4 a2 | f2 f2 f2 | e4 e2 | d2 c2 B2 | A4 z2 :| %44
!<(! g2 g2 g2!<)! | g4 g2 |!>(! f2 a2 g2!>)! | e4 e2 | z c' z b z a | z g z e' z g | z f z d' z f | %51
 e4 e2 |!<(! e2 ^f2 ^g2!<)! | a4 c'2 |!>(! b2 a2 ^g2!>)! | a4 a2 | f2 f2 f2 | e4 e2 | d2 c2 B2 | %59
 A4 z2 | f2 f2 f2 | e4 e2 |!<(! e2 x2!<)!!>(! x2!>)! | a2 a2 z2 |: %64
!<(! z/4 e/4e/4e/4 z/4 e/4e/4e/4 z/4 ^f/4f/4f/4 z/4 f/4f/4f/4 z/4 ^g/4g/4g/4 z/4 g/4g/4g/4!<)! | %65
 z/4 a/4a/4a/4 z/4 a/4a/4a/4 z/4 a/4a/4a/4 z/4 a/4a/4a/4 z/4 c'/4c'/4c'/4 z/4 c'/4c'/4c'/4 | %66
!>(! z/4 b/4b/4b/4 z/4 b/4b/4b/4 z/4 a/4a/4a/4 z/4 a/4a/4a/4 z/4 ^g/4g/4g/4 z/4 g/4g/4g/4!>)! | %67
 z/4 a/4a/4a/4 z/4 a/4a/4a/4 z/4 a/4a/4a/4 z/4 a/4a/4a/4 z/4 a/4a/4a/4 z/4 a/4a/4a/4 | %68
 z/4 f/4f/4f/4 z/4 f/4f/4f/4 z/4 f/4f/4f/4 z/4 f/4f/4f/4 z/4 f/4f/4f/4 z/4 f/4f/4f/4 | %69
 z/4 e/4e/4e/4 z/4 e/4e/4e/4 z/4 e/4e/4e/4 z/4 e/4e/4e/4 z/4 e/4e/4e/4 z/4 e/4e/4e/4 | %70
 z/4 d/4d/4d/4 z/4 d/4d/4d/4 z/4 c/4c/4c/4 z/4 c/4c/4c/4 z/4 B/4B/4B/4 z/4 B/4B/4B/4 | %71
 z/4 A/4A/4A/4 z/4 A/4A/4A/4 z/4 A/4A/4A/4 z/4 A/4A/4A/4 A2 :| %72
!<(! z/4 g/4g/4g/4 z/4 g/4g/4g/4 z/4 g/4g/4g/4 z/4 g/4g/4g/4 z/4 g/4g/4g/4 z/4 g/4g/4g/4!<)! | %73
 z/4 g/4g/4g/4 z/4 g/4g/4g/4 z/4 g/4g/4g/4 z/4 g/4g/4g/4 z/4 g/4g/4g/4 z/4 g/4g/4g/4 | %74
!>(! z/4 f/4f/4f/4 z/4 f/4f/4f/4 z/4 a/4a/4a/4 z/4 a/4a/4a/4 z/4 g/4g/4g/4 z/4 g/4g/4g/4!>)! | %75
 z/4 e/4e/4e/4 z/4 e/4e/4e/4 z/4 e/4e/4e/4 z/4 e/4e/4e/4 z/4 e/4e/4e/4 z/4 e/4e/4e/4 | %76
 z/4 c'/4c'/4c'/4 z/4 c'/4c'/4c'/4 z/4 b/4b/4b/4 z/4 b/4b/4b/4 z/4 a/4a/4a/4 z/4 a/4a/4a/4 | %77
 z/4 g/4g/4g/4 z/4 g/4g/4g/4 z/4 e'/4e'/4e'/4 z/4 e'/4e'/4e'/4 z/4 g/4g/4g/4 z/4 g/4g/4g/4 | %78
 z/4 f/4f/4f/4 z/4 f/4f/4f/4 z/4 d'/4d'/4d'/4 z/4 d'/4d'/4d'/4 z/4 f/4f/4f/4 z/4 f/4f/4f/4 | %79
 z/4 e/4e/4e/4 z/4 e/4e/4e/4 z/4 e/4e/4e/4 z/4 e/4e/4e/4 z/4 e/4e/4e/4 z/4 e/4e/4e/4 | %80
!<(! z/4 e/4e/4e/4 z/4 e/4e/4e/4 z/4 ^f/4f/4f/4 z/4 f/4f/4f/4 z/4 ^g/4g/4g/4 z/4 g/4g/4g/4!<)! | %81
 z/4 a/4a/4a/4 z/4 a/4a/4a/4 z/4 a/4a/4a/4 z/4 a/4a/4a/4 z/4 c'/4c'/4c'/4 z/4 c'/4c'/4c'/4 | %82
!>(! z/4 b/4b/4b/4 z/4 b/4b/4b/4 z/4 a/4a/4a/4 z/4 a/4a/4a/4 z/4 ^g/4g/4g/4 z/4 g/4g/4g/4!>)! | %83
 z/4 a/4a/4a/4 z/4 a/4a/4a/4 z/4 a/4a/4a/4 z/4 a/4a/4a/4 z/4 a/4a/4a/4 z/4 a/4a/4a/4 | %84
 z/4 f/4f/4f/4 z/4 f/4f/4f/4 z/4 f/4f/4f/4 z/4 f/4f/4f/4 z/4 f/4f/4f/4 z/4 f/4f/4f/4 | %85
 z/4 e/4e/4e/4 z/4 e/4e/4e/4 z/4 e/4e/4e/4 z/4 e/4e/4e/4 z/4 e/4e/4e/4 z/4 e/4e/4e/4 | %86
 z/4 d/4d/4d/4 z/4 d/4d/4d/4 z/4 c/4c/4c/4 z/4 c/4c/4c/4 z/4 B/4B/4B/4 z/4 B/4B/4B/4 | %87
 z/4 A/4A/4A/4 z/4 A/4A/4A/4 z/4 A/4A/4A/4 z/4 A/4A/4A/4 A z | %88
 z/4 f/4f/4f/4 z/4 f/4f/4f/4 z/4 f/4f/4f/4 z/4 f/4f/4f/4 z/4 f/4f/4f/4 z/4 f/4f/4f/4 | %89
 z/4 e/4e/4e/4 z/4 e/4e/4e/4 z/4 e/4e/4e/4 z/4 e/4e/4e/4 z/4 e/4e/4e/4 z/4 e/4e/4e/4 | %90
!<(! e2 x2!<)!!>(! x2!>)! | a2 a2 z2 |] %92
V:2
 !0!E,6 | !0!A,6 | !0!D6 | !0!A,6 | !0!D6 | !0!E,6 | !0!E,6 | !4!A,6 | !0!E,2 z2 z2 | %9
 !0!A,2 !3!A2 z2 | !0!D2 z2 z2 | !0!A,2 !3!A2 z2 | !0!D2 z2 z2 | !0!E,2 !3!E2 z2 | !0!E,2 z2 z2 | %15
 !4!A,6 | !3!C6 | !2!E6 | !0!D6 | !3!C6 | !3!!1![Ac]2 !2!!1![GB]2 !2!!1![FA]2 | %21
 !2!!0![EG]2 !0!!2![Gc]2 !2!!0![EG]2 | !0!D6 | !3!C4 z2 | !0!E,2 z2 z2 | !0!A,2 !3!A2 z2 | %26
 !0!D2 z2 z2 | !0!A,2 !3!A2 z2 | !0!D2 z2 z2 | !0!E,2 !3!E2 z2 | !0!E,2 z2 z2 | !4!A,6 | %32
 !0!D2 z2 z2 | !0!E,2 !3!E2 z2 | %34
 !0!E,/!2!B,/!3!E/!1!^G/ !0!B/!0!e/!3!^g/!2!b/ !fermata!!4!f'!4!e' | z2 !1!!3!!4![A,EAce]2 z2 |: %36
 E,2 z2 z2 | A,2 A2 z2 | D2 z2 z2 | A,2 A2 z2 | D2 z2 z2 | E,2 E2 z2 | E,2 z2 z2 | A,2 x2 A,2 :| %44
 C2 z2 z2 | C2 E2 z2 | D2 z2 z2 | C2 E2 z2 | A/c/c'/c/ G/B/b/B/ F/A/a/A/ | %49
 E/G/g/G/ c/G/e'/G/ E/G/g/G/ | D/B/f/B/ G/B/d'/B/ G/B/f/B/ | C2 E2 z2 | E,2 z2 z2 | A,2 A2 z2 | %54
 D2 z2 z2 | A,2 A2 z2 | D2 z2 z2 | E,2 E2 z2 | E,2 z2 z2 | A,2 x2 A,2 | D2 z2 z2 | E,2 E2 z2 | %62
 E,/B,/E/^G/ B/e/^g/b/ !fermata!f'e' | z2 [A,EAce]2 z2 |: E,2 z2 z2 | A,2 z2 z2 | D2 z2 z2 | %67
 A,2 z2 z2 | D2 z2 z2 | E,2 z2 z2 | E,2 z2 z2 | A,2 z2 A,2 :| C2 z2 z2 | E2 z2 z2 | D2 z2 z2 | %75
 C2 z2 z2 | Ac GB FA | EG cG EG | DG BG DG | C2 z2 z2 | E,2 z2 z2 | A,2 z2 z2 | D2 z2 z2 | %83
 A,2 z2 z2 | D2 z2 z2 | E,2 z2 z2 | E,2 z2 z2 | A,2 z2 A, z | D2 z2 z2 | E,2 z2 z2 | %90
 E,/B,/E/^G/ B/e/^g/b/ !fermata!f'e' | z2 [A,EAce]2 z2 |] %92
V:3
 z2 !3!!2![Bd]2 [Bd]2 | z2 [ce]2 [ce]2 | z2 !3!!2![df]2 [df]2 | z2 [ce]2 [ce]2 | %4
 z2 !4!!3![Bd]2 [Bd]2 | z2 !2!!1![Ac]2 [Ac]2 | z2 !2!!1![E^G]2 [EG]2 | z2 E2 !2!C2 | %8
 z !3!!2![Bd] z [Bd] z [Bd] | z [ce] z [ce] z [ce] | z !3!!2![df] z [df] z [df] | %11
 z [ce] z [ce] z [ce] | z !4!!3![Bd] z [Bd] z [Bd] | z !2!!1![Ac] z [Ac] z [Ac] | %14
 z !2!!1![E^G] z [EG] z [EG] | z2 E2 !2!C2 | z2 !0!!1![Gc]2 [Gc]2 | z2 [Gc]2 [Gc]2 | %18
 z2 !0![GB]2 [GB]2 | z2 !0!!1![Gc]2 [Gc]2 | x6 | x6 | z2 !0![GB]2 [GB]2 | z2 !0!!1![Gc]2 z2 | %24
 z !3!!2![Bd] z [Bd] z [Bd] | z [ce] z [ce] z [ce] | z !3!!2![df] z [df] z [df] | %27
 z [ce] z [ce] z [ce] | z !4!!3![Bd] z [Bd] z [Bd] | z !2!!1![Ac] z [Ac] z [Ac] | %30
 z !2!!1![E^G] z [EG] z [EG] | z2 E2 !2!C2 | z !4!!3![Bd] z [Bd] z [Bd] | %33
 z !2!!1![Ac] z [Ac] z [Ac] | x6 | x6 |: z/ B/d/B/ z/ B/d/B/ z/ B/d/B/ | %37
 z/ c/e/c/ z/ c/e/c/ z/ c/e/c/ | z/ d/f/d/ z/ d/f/d/ z/ d/f/d/ | z/ c/e/c/ z/ c/e/c/ z/ c/e/c/ | %40
 z/ B/d/B/ z/ B/d/B/ z/ B/d/B/ | z/ A/c/A/ z/ A/c/A/ z/ A/c/A/ | z/ E/^G/E/ z/ E/G/E/ z/ E/G/E/ | %43
 z ECE x2 :| z/ G/c/G/ z/ G/c/G/ z/ G/c/G/ | z/ G/c/G/ z/ G/c/G/ z/ G/c/G/ | %46
 z/ G/B/G/ z/ G/B/G/ z/ G/B/G/ | z/ G/c/G/ z/ G/c/G/ z/ G/c/G/ | x6 | x6 | x6 | %51
 z/ G/c/G/ z/ G/c/G/ z/ G/c/G/ | z/ B/d/B/ z/ B/d/B/ z/ B/d/B/ | z/ c/e/c/ z/ c/e/c/ z/ c/e/c/ | %54
 z/ d/f/d/ z/ d/f/d/ z/ d/f/d/ | z/ c/e/c/ z/ c/e/c/ z/ c/e/c/ | z/ B/d/B/ z/ B/d/B/ z/ B/d/B/ | %57
 z/ A/c/A/ z/ A/c/A/ z/ A/c/A/ | z/ E/^G/E/ z/ E/G/E/ z/ E/G/E/ | z ECE x2 | %60
 z/ B/d/B/ z/ B/d/B/ z/ B/d/B/ | z/ A/c/A/ z/ A/c/A/ z/ A/c/A/ | x6 | x6 |: z B dB dB | z c ec ec | %66
 z B fB fB | z c ec ec | z B dB dB | z A cA cA | z E ^GE GE | z ECE x2 :| z G cG cG | z G cG cG | %74
 z G BG BG | z G cG cG | x6 | x6 | x6 | z E Gc GE | z B dB dB | z c ec ec | z B fB fB | z c ec ec | %84
 z B dB dB | z A cA cA | z E ^GE GE | z ECE x2 | z B dB dB | z A cA cA | x6 | x6 |] %92

